X:1
T:James Gibb editions
T:Il vagh'e dolce sguardo - Arcadelt
T:#
%%score [ 1 2 3 4 ]
L:1/8
Q:1/4=121
M:4/4
K:F
V:1 treble nm="Soprano" snm="S"
V:2 treble nm="Alto" snm="A"
V:3 treble-8 nm="Tenor" snm="T"
V:4 bass nm="Bass" snm="B"
V:1
"^Il vagh'e dolce sguardo""^Jacques Arcadelt\n(1505-68)" z8 | c4 d4- | d2 d2 B2 c2 | c4 c4 | %4
w: |Il vagh'|* e dol- ce|sguar- do,|
 d4 d2 c2 | A2 A2 d4 |[M:4/4] c4 z2 f2 | d2 e2 f2 (f2- | fe/d/) e2 f2 e2 | e2 e2 f4 | e4 z2 f2- | %11
w: qual hor lie-|to ri- vol-|ta, ma-|don- n'in me tutt'|* * * ar- do, per|la gran gio-|ia ch'è|
 f2 e2 g2 f2 | f4 e4 | (f3 e) c2 d2 | d2 c4 =B2 | c4 z4 | z2 f2 f2 d2 | e3 f d4 | c4 z2 e2 | %19
w: * in me rac-|col- ta.|Ma * poi ch'el-|la m'a- scol-|ta,|e che sel-|vag- gi'e schi-|va ver|
 e4 z2 e2 | f6 f2 | f2 f2 f3 e | d2 c4 B2 | c2 f2 d2 e2 | f2 (f3 e/d/ e2) | (f3 e d2) c2 | %26
w: me, ver|me si|mo- stra più ch'io|non vor- re-|i, qua- si m'a-|dir a * * *|le\- * * i.|
 z2 c2 d2 c2 | A3 B c2 (d2- | d2 B2) c4- | c2 A2 B2 c2 | z2 c2 d2 c2 | A3 B c2 d2 | d2 B2 c4 | %33
w: Vuol che liet'|e pe- no- so|* * co\-|* sì vi- va,|vuol che liet'|e pe- no- so|co- sì vi-|
 !fermata!c8 |] %34
w: va.|
V:2
 z4 C4 | F6 F2 | F4 G4 | (A3 G/F/) E4 | z2 G2 F2 E2 | D2 D2 F4 |[M:4/4] F4 z2 A2 | B2 G2 A2 B2 | %8
w: Il|vagh' e|dol- ce|sguar\- * * do,|qual hor lie-|to ri- vol-|ta, ma-|don- n'in me tutt'|
 G4 A4 | z2 A2 A2 A2 | A4 A2 c2- | c2 c2 B2 (A2- | A2 GF) A2 G2 | z8 | z2 F2 F2 D2 | E2 F2 D4 | %16
w: ar- do,|per la gran|gio- ia ch'è|* in me rac\-|* * * col- ta.||Ma poi ch'el-|la m'a- scol-|
 C2 z F A2 B2 | c2 (GA) (BAGF) | E2 G2 G4 | z2 G2 A4- | A2 A2 A2 A2 | B2 A2 B3 A | (G2 F4 E2) | %23
w: ta, e che sel-|vag- gi'e * schi\- * * *|va ver me,|ver me,|* si mo- stra|più ch'io non vor-|re\- * *|
 F2 A2 B2 G2 | A2 B2 G4 | A4 z2 A2 | G2 F2 F2 E2 | F2 (A3 GFE) | DC (F4 E2) | F4 z2 A2 | %30
w: i, qua- si m'a-|dir a le-|i. Vuol|che liet' e pe-|no- so * * *|co- sì vi\- *|va, vuol|
 G2 F2 F2 E2 | F2 (A3 GFE) | DC (F4 E2) | !fermata!F8 |] %34
w: che liet' e pe-|no- so * * *|co- sì vi\- *|va.|
V:3
 C4 (F4 | F2 F2) F2 (DC | DE) (F4 E2 | F4) G4 | z2 B2 B2 G2 | F2 F2 B4 | %6
w: Il vagh'|* e dol- ce *|* * sguar\- *|* do,|qual hor lie-|to ri- vol-|
[M:4/4][K:treble-8] A2 A2 d4 | B2 c2 A2 F2 | c4 c2 c2 | c2 c2 d4 | c4 z2 A2- | A2 c2 d2 d2 | %12
w: ta, ma- don-|na in me tutt'|ar- do, per|la gran gio-|ia ch'è|* in me rac-|
 c4 c4 | A4 A2 F2 | G2 A2 F4 | G2 A2 A2 F2 | G2 A2 F4 | G4 z4 | z4 z2 c2 | c4 z2 c2 | d6 d2 | %21
w: col- ta.|Ma poi ch'el-|la m'a- scol-|ta, e che sel-|vag- gi'e schi-|va|ver|me, ver|me si|
 d2 d2 d3 c | B2 A2 G4 | F2 c2 B2 c2 | A2 F2 c2 c2 | z2 F2 G2 A2 | B2 A2 G4 | (F3 G A2) (B2- | %28
w: mo- stra più ch'io|non vor- re-|i, qua- si m'a-|dir a le- i.|Vuol che liet'|e pe- no-|so * * co\-|
 BA) (GF) G4 | F2 F2 G2 A2 | B2 A2 G4 | (F3 G A2) (B2- | BA) (GF) G4 | !fermata!F8 |] %34
w: * * sì * vi-|va, vuol che liet'|e pe- no-|so * * co\-|* * sì * vi-|va.|
V:4
 z8 | F,,4 B,,4- | B,,2 B,,2 G,,2 C,2 | F,,4 C,4 | G,,4 B,,2 C,2 | D,2 D,2 B,,4 | %6
w: |Il vagh'|* e dol- ce|sguar- do,|qual hor lie-|to ri- vol-|
[M:4/4] F,4 z2 F,2 | G,2 C,2 F,2 D,2 | C,4 F,2 A,2 | A,2 A,2 D,4 | A,4 z2 F,2- | F,2 A,2 G,2 D,2 | %12
w: ta, ma-|don- n'in me tutt'|ar- do, per|la gran gio-|ia ch'è|* in me rac-|
 F,4 C,4 | z2 F,2 F,2 D,2 | E,2 F,2 D,4 | C,2 F,2 F,2 D,2 | E,2 F,2 D,4 | C,4 z4 | z8 | z8 | z8 | %21
w: col- ta.|Ma poi ch'el-|la m'a- scol-|ta, e che sel-|vag- gi'e schi-|va||||
 z8 | z8 | z2 F,2 G,2 C,2 | F,2 D,2 C,4 | F,4 z2 F,,2 | G,,2 A,,2 B,,2 C,2 | D,2 (F,3 E,D,C,) | %28
w: ||qua- si m'a-|dir a le-|i. Vuol|che liet' e pe-|no- so * * *|
 B,,2 D,2 C,4 | F,,4 z2 F,,2 | G,,2 A,,2 B,,2 C,2 | D,2 (F,3 E,D,C,) | B,,2 D,2 C,4 | %33
w: co- sì vi-|va, vuol|che liet' e pe-|no- so * * *|co- sì vi-|
 !fermata!F,,8 |] %34
w: va.|

